images/ic_ping.svg

<svg width="16" height="16" viewBox="0 0 16 16" fill="none" xmlns="http://www.w3.org/2000/svg">
<path d="M1.08544 10.0946C0.750373 10.4068 0.481628 10.7833 0.295232 11.2017C0.108837 11.62 0.00861 12.0716 0.000530745 12.5295C-0.00754851 12.9874 0.0766853 13.4423 0.248207 13.8669C0.41973 14.2915 0.675026 14.6773 0.998866 15.0011C1.32271 15.325 1.70846 15.5803 2.1331 15.7518C2.55775 15.9233 3.0126 16.0075 3.4705 15.9995C3.92841 15.9914 4.38 15.8912 4.79834 15.7048C5.21667 15.5184 5.59317 15.2496 5.90539 14.9146C6.54403 14.2751 6.90275 13.4083 6.90275 12.5046C6.90275 11.6008 6.54403 10.7341 5.90539 10.0946C5.25483 9.47733 4.39222 9.13321 3.49541 9.13321C2.59861 9.13321 1.73599 9.47733 1.08544 10.0946ZM4.30253 13.3117C4.19685 13.4183 4.07112 13.5028 3.93259 13.5605C3.79406 13.6182 3.64548 13.648 3.49541 13.648C3.34534 13.648 3.19676 13.6182 3.05823 13.5605C2.9197 13.5028 2.79398 13.4183 2.6883 13.3117C2.58175 13.206 2.49718 13.0803 2.43947 12.9418C2.38175 12.8032 2.35204 12.6547 2.35204 12.5046C2.35204 12.3545 2.38175 12.2059 2.43947 12.0674C2.49718 11.9289 2.58175 11.8032 2.6883 11.6975C2.79398 11.5909 2.9197 11.5064 3.05823 11.4486C3.19676 11.3909 3.34534 11.3612 3.49541 11.3612C3.64548 11.3612 3.79406 11.3909 3.93259 11.4486C4.07112 11.5064 4.19685 11.5909 4.30253 11.6975C4.40907 11.8032 4.49364 11.9289 4.55136 12.0674C4.60907 12.2059 4.63878 12.3545 4.63878 12.5046C4.63878 12.6547 4.60907 12.8032 4.55136 12.9418C4.49364 13.0803 4.40907 13.206 4.30253 13.3117ZM3.49541 4.54712C3.19392 4.54712 2.90477 4.66689 2.69159 4.88008C2.4784 5.09327 2.35863 5.38241 2.35863 5.6839C2.35863 5.9854 2.4784 6.27454 2.69159 6.48773C2.90477 6.70092 3.19392 6.82069 3.49541 6.82069C5.00288 6.82069 6.4486 7.41952 7.51454 8.48546C8.58048 9.5514 9.17932 10.9971 9.17932 12.5046C9.17932 12.8061 9.29908 13.0952 9.51227 13.3084C9.72546 13.5216 10.0146 13.6414 10.3161 13.6414C10.6176 13.6414 10.9067 13.5216 11.1199 13.3084C11.3331 13.0952 11.4529 12.8061 11.4529 12.5046C11.4529 10.3941 10.6145 8.37013 9.12219 6.87781C7.62987 5.3855 5.60586 4.54712 3.49541 4.54712ZM3.49541 0C3.19392 0 2.90477 0.119768 2.69159 0.332956C2.4784 0.546143 2.35863 0.835288 2.35863 1.13678C2.35863 1.43827 2.4784 1.72742 2.69159 1.94061C2.90477 2.15379 3.19392 2.27356 3.49541 2.27356C6.20885 2.27356 8.81115 3.35147 10.7298 5.27016C12.6485 7.18885 13.7264 9.79115 13.7264 12.5046C13.7264 12.8061 13.8462 13.0952 14.0594 13.3084C14.2726 13.5216 14.5617 13.6414 14.8632 13.6414C15.1647 13.6414 15.4539 13.5216 15.667 13.3084C15.8802 13.0952 16 12.8061 16 12.5046C16 9.18817 14.6826 6.00758 12.3375 3.66251C9.99243 1.31744 6.81183 0 3.49541 0Z" fill="white"/>
</svg>

<svg xmlns="http://www.w3.org/2000/svg" fill="none" viewBox="0 0 16 16"><path d="M1.085 10.095A3.41 3.41 0 0 0 0 12.53a3.41 3.41 0 0 0 .998 2.472A3.41 3.41 0 0 0 3.47 16a3.41 3.41 0 0 0 2.435-1.085 3.41 3.41 0 0 0 0-4.82 3.5 3.5 0 0 0-4.82 0zm3.217 3.217c-.106.107-.23.19-.37.25s-.287.088-.437.088-.3-.03-.437-.088-.264-.142-.37-.25-.19-.23-.25-.37-.087-.287-.087-.437.03-.3.087-.437.142-.264.25-.37.23-.19.37-.25.287-.087.437-.087.3.03.437.087a1.14 1.14 0 0 1 .37.249c.107.106.19.23.25.37s.087.287.087.437-.03.3-.087.437-.142.264-.25.37zm-.807-8.765c-.3 0-.59.12-.804.333s-.333.502-.333.804.12.59.333.804.502.333.804.333c1.508 0 2.953.6 4.02 1.665s1.665 2.512 1.665 4.02c0 .3.12.59.333.804s.502.333.804.333.59-.12.804-.333.333-.502.333-.804a7.96 7.96 0 0 0-7.957-7.958zm0-4.547c-.3 0-.59.12-.804.333s-.333.502-.333.804.12.59.333.804.502.333.804.333a10.23 10.23 0 0 1 10.231 10.231c0 .3.12.59.333.804s.502.333.804.333.59-.12.804-.333.333-.502.333-.804c0-3.316-1.317-6.497-3.663-8.842S6.812 0 3.495 0z" fill="#fff"/></svg>
